X:1
T:QA 7
L:1/8
M:4/4
V:1
V:2 clef=bass
K:C
[V:1] d f2 e dcAF | ED B/2 A/2 A/2 G/2 A G2 | c G2 B AEFG | F2 ^CA, A,4 :|
[V:2] [D,F,C]8 | [G,,F,B,]8 | [C,E,B,]8 | [A,,G,^C]8 :|